src/icons/home.svg

<?xml version="1.0" ?><svg height="32" id="svg8" version="1.1" viewBox="0 0 8.4666665 8.4666669" width="32" xmlns="http://www.w3.org/2000/svg" xmlns:cc="http://creativecommons.org/ns#" xmlns:dc="http://purl.org/dc/elements/1.1/" xmlns:inkscape="http://www.inkscape.org/namespaces/inkscape" xmlns:rdf="http://www.w3.org/1999/02/22-rdf-syntax-ns#" xmlns:sodipodi="http://sodipodi.sourceforge.net/DTD/sodipodi-0.dtd" xmlns:svg="http://www.w3.org/2000/svg"><defs id="defs2"/><g id="layer1" transform="translate(0,-288.53332)"><path d="M 15.996094 9.6328125 L 4 19.919922 L 4 30 C 4.0000552 30.552262 4.4477381 30.999945 5 31 L 11 31 C 11.552262 30.999945 11.999945 30.552262 12 30 L 12 19 L 20 19 L 20 30 C 20.000055 30.552262 20.447738 30.999945 21 31 L 27 31 C 27.552262 30.999945 27.999945 30.552262 28 30 L 28 19.919922 L 15.996094 9.6328125 z " id="rect965" style="color:#000000;font-style:normal;font-variant:normal;font-weight:normal;font-stretch:normal;font-size:medium;line-height:normal;font-family:sans-serif;font-variant-ligatures:normal;font-variant-position:normal;font-variant-caps:normal;font-variant-numeric:normal;font-variant-alternates:normal;font-feature-settings:normal;text-indent:0;text-align:start;text-decoration:none;text-decoration-line:none;text-decoration-style:solid;text-decoration-color:#000000;letter-spacing:normal;word-spacing:normal;text-transform:none;writing-mode:lr-tb;direction:ltr;text-orientation:mixed;dominant-baseline:auto;baseline-shift:baseline;text-anchor:start;white-space:normal;shape-padding:0;clip-rule:nonzero;display:inline;overflow:visible;visibility:visible;opacity:1;isolation:auto;mix-blend-mode:normal;color-interpolation:sRGB;color-interpolation-filters:linearRGB;solid-color:#000000;solid-opacity:1;vector-effect:none;fill:#000000;fill-opacity:1;fill-rule:nonzero;stroke:none;stroke-width:1.99999988;stroke-linecap:round;stroke-linejoin:round;stroke-miterlimit:4;stroke-dasharray:none;stroke-dashoffset:0;stroke-opacity:1;paint-order:stroke fill markers;color-rendering:auto;image-rendering:auto;shape-rendering:auto;text-rendering:auto;enable-background:accumulate" transform="matrix(0.26458333,0,0,0.26458333,0,288.53332)"/><path d="M 15.347656,1.2402344 1.3515625,13.242188 C 1.1269418,13.431557 0.99694863,13.710113 0.99609375,14.003906 V 19 c -0.00453,0.858995 1.00457065,1.323634 1.65429685,0.761719 L 15.996094,8.3183594 29.349609,19.761719 C 29.998987,20.311746 30.994883,19.851011 30.996094,19 v -4.996094 c 0.0016,-0.292218 -0.124718,-0.570512 -0.345703,-0.761718 L 16.654297,1.2402344 c -0.369247,-0.3166375 -0.937862,-0.31623599 -1.306641,0 z" id="path984" style="color:#000000;font-style:normal;font-variant:normal;font-weight:normal;font-stretch:normal;font-size:medium;line-height:normal;font-family:sans-serif;font-variant-ligatures:normal;font-variant-position:normal;font-variant-caps:normal;font-variant-numeric:normal;font-variant-alternates:normal;font-feature-settings:normal;text-indent:0;text-align:start;text-decoration:none;text-decoration-line:none;text-decoration-style:solid;text-decoration-color:#000000;letter-spacing:normal;word-spacing:normal;text-transform:none;writing-mode:lr-tb;direction:ltr;text-orientation:mixed;dominant-baseline:auto;baseline-shift:baseline;text-anchor:start;white-space:normal;shape-padding:0;clip-rule:nonzero;display:inline;overflow:visible;visibility:visible;opacity:1;isolation:auto;mix-blend-mode:normal;color-interpolation:sRGB;color-interpolation-filters:linearRGB;solid-color:#000000;solid-opacity:1;vector-effect:none;fill:#000000;fill-opacity:1;fill-rule:nonzero;stroke:none;stroke-width:2;stroke-linecap:butt;stroke-linejoin:round;stroke-miterlimit:4;stroke-dasharray:none;stroke-dashoffset:0;stroke-opacity:1;color-rendering:auto;image-rendering:auto;shape-rendering:auto;text-rendering:auto;enable-background:accumulate" transform="matrix(0.26458333,0,0,0.26458333,0,288.53332)"/></g></svg>

<?xml version="1.0" encoding="UTF-8"?>
<svg width="32" height="32" version="1.1" viewBox="0 0 8.4667 8.4667" xmlns="http://www.w3.org/2000/svg">
<g transform="translate(0 -288.53)" shape-rendering="auto">
<path transform="matrix(.26458 0 0 .26458 0 288.53)" d="m15.996 9.6328-11.996 10.287v10.08c5.52e-5 0.55226 0.44774 0.99994 1 1h6c0.55226-5.5e-5 0.99994-0.44774 1-1v-11h8v11c5.5e-5 0.55226 0.44774 0.99994 1 1h6c0.55226-5.5e-5 0.99994-0.44774 1-1v-10.08l-12.004-10.287z" color="#000000" color-rendering="auto" dominant-baseline="auto" image-rendering="auto" solid-color="#000000" style="font-feature-settings:normal;font-variant-alternates:normal;font-variant-caps:normal;font-variant-ligatures:normal;font-variant-numeric:normal;font-variant-position:normal;isolation:auto;mix-blend-mode:normal;paint-order:stroke fill markers;shape-padding:0;text-decoration-color:#000000;text-decoration-line:none;text-decoration-style:solid;text-indent:0;text-orientation:mixed;text-transform:none;white-space:normal"/>
<path transform="matrix(.26458 0 0 .26458 0 288.53)" d="m15.348 1.2402-13.996 12.002c-0.22462 0.18937-0.35461 0.46792-0.35547 0.76172v4.9961c-0.00453 0.859 1.0046 1.3236 1.6543 0.76172l13.346-11.443 13.354 11.443c0.64938 0.55003 1.6453 0.089292 1.6465-0.76172v-4.9961c0.0016-0.29222-0.12472-0.57051-0.3457-0.76172l-13.996-12.002c-0.36925-0.31664-0.93786-0.31624-1.3066 0z" color="#000000" color-rendering="auto" dominant-baseline="auto" image-rendering="auto" solid-color="#000000" style="font-feature-settings:normal;font-variant-alternates:normal;font-variant-caps:normal;font-variant-ligatures:normal;font-variant-numeric:normal;font-variant-position:normal;isolation:auto;mix-blend-mode:normal;shape-padding:0;text-decoration-color:#000000;text-decoration-line:none;text-decoration-style:solid;text-indent:0;text-orientation:mixed;text-transform:none;white-space:normal"/>
</g>
</svg>
